X:31
T:Cymbal, La
M:6/8
L:1/8
N:Drone 'D' throughout the first two parts;
N:Drone 'A' for the third part.
B:Thompson's Compleat Collection of 200 Favourite Country Dances, vol. 3 (London, 1773)
Z:Transcribed and edited by Flynn Titford-Mock, 2007
Z:abc's:AK/Fiddler's Companion
K:D
(Ad).d dfd | {f}e2d d2A | (Ad).d dfd | ege d3::Aaa a2A | Bec cdA |
Aaa a2A | Bec (cd)A::faf gbe | faf g2e | faf geb | agf f2e | fad' d'c'b | {b}a2a a2e |
faf (ag).f | (fe).e e2e | fac' (d'c').b | (ba).a a2e | faf agf | fee e2A |]

